Newaita/actions/16/object-order-front.svg

<svg height="16" viewBox="0 0 16 16" width="16" xmlns="http://www.w3.org/2000/svg"><g fill="#424242"><path d="m1.652344 3.433594h12.570312c.183594 0 .332032-.148438.332032-.332032v-.660156c0-.183594-.148438-.332031-.332032-.332031h-12.570312c-.179688 0-.328125.148437-.328125.332031v.660156c0 .183594.148437.332032.328125.332032zm0 0"/><path d="m7.609375 14.347656h6.613281c.183594 0 .332032-.148437.332032-.332031v-.660156c0-.183594-.148438-.332031-.332032-.332031h-6.613281c-.183594 0-.332031.148437-.332031.332031v.660156c0 .183594.148437.332031.332031.332031zm0 0"/><path d="m7.609375 10.710938h6.613281c.183594 0 .332032-.148438.332032-.332032v-.660156c0-.183594-.148438-.332031-.332032-.332031h-6.613281c-.183594 0-.332031.148437-.332031.332031v.660156c0 .183594.148437.332032.332031.332032zm0 0"/><path d="m7.609375 7.070312h6.613281c.183594 0 .332032-.148437.332032-.332031v-.660156c0-.183594-.148438-.332031-.332032-.332031h-6.613281c-.183594 0-.332031.148437-.332031.332031v.660156c0 .183594.148437.332031.332031.332031zm0 0"/><path d="m2.976562 7.070312h1.324219v6.9375c0 .183594-.148437.332032-.332031.332032h-.660156c-.183594 0-.332032-.148438-.332032-.332032zm0 0"/><path d="m5.953125 8.0625h-4.628906l2.3125-3.308594zm0 0"/></g></svg>

<svg xmlns="http://www.w3.org/2000/svg" xmlns:xlink="http://www.w3.org/1999/xlink" width="16px" height="16px" viewBox="0 0 16 16" version="1.1">
<g id="surface1">
     <defs>
  <style id="current-color-scheme" type="text/css">
   .ColorScheme-Text { color:#424242; } .ColorScheme-Highlight { color:#eeeeee; }
  </style>
 </defs>
<path style="fill:currentColor" class="ColorScheme-Text" d="M 1.652344 3.433594 L 14.222656 3.433594 C 14.40625 3.433594 14.554688 3.285156 14.554688 3.101562 L 14.554688 2.441406 C 14.554688 2.257812 14.40625 2.109375 14.222656 2.109375 L 1.652344 2.109375 C 1.472656 2.109375 1.324219 2.257812 1.324219 2.441406 L 1.324219 3.101562 C 1.324219 3.285156 1.472656 3.433594 1.652344 3.433594 Z M 1.652344 3.433594 "/>
     <defs>
  <style id="current-color-scheme" type="text/css">
   .ColorScheme-Text { color:#424242; } .ColorScheme-Highlight { color:#eeeeee; }
  </style>
 </defs>
<path style="fill:currentColor" class="ColorScheme-Text" d="M 7.609375 14.347656 L 14.222656 14.347656 C 14.40625 14.347656 14.554688 14.199219 14.554688 14.015625 L 14.554688 13.355469 C 14.554688 13.171875 14.40625 13.023438 14.222656 13.023438 L 7.609375 13.023438 C 7.425781 13.023438 7.277344 13.171875 7.277344 13.355469 L 7.277344 14.015625 C 7.277344 14.199219 7.425781 14.347656 7.609375 14.347656 Z M 7.609375 14.347656 "/>
     <defs>
  <style id="current-color-scheme" type="text/css">
   .ColorScheme-Text { color:#424242; } .ColorScheme-Highlight { color:#eeeeee; }
  </style>
 </defs>
<path style="fill:currentColor" class="ColorScheme-Text" d="M 7.609375 10.710938 L 14.222656 10.710938 C 14.40625 10.710938 14.554688 10.5625 14.554688 10.378906 L 14.554688 9.71875 C 14.554688 9.535156 14.40625 9.386719 14.222656 9.386719 L 7.609375 9.386719 C 7.425781 9.386719 7.277344 9.535156 7.277344 9.71875 L 7.277344 10.378906 C 7.277344 10.5625 7.425781 10.710938 7.609375 10.710938 Z M 7.609375 10.710938 "/>
     <defs>
  <style id="current-color-scheme" type="text/css">
   .ColorScheme-Text { color:#424242; } .ColorScheme-Highlight { color:#eeeeee; }
  </style>
 </defs>
<path style="fill:currentColor" class="ColorScheme-Text" d="M 7.609375 7.070312 L 14.222656 7.070312 C 14.40625 7.070312 14.554688 6.921875 14.554688 6.738281 L 14.554688 6.078125 C 14.554688 5.894531 14.40625 5.746094 14.222656 5.746094 L 7.609375 5.746094 C 7.425781 5.746094 7.277344 5.894531 7.277344 6.078125 L 7.277344 6.738281 C 7.277344 6.921875 7.425781 7.070312 7.609375 7.070312 Z M 7.609375 7.070312 "/>
     <defs>
  <style id="current-color-scheme" type="text/css">
   .ColorScheme-Text { color:#424242; } .ColorScheme-Highlight { color:#eeeeee; }
  </style>
 </defs>
<path style="fill:currentColor" class="ColorScheme-Text" d="M 2.976562 7.070312 L 4.300781 7.070312 L 4.300781 14.007812 C 4.300781 14.191406 4.152344 14.339844 3.96875 14.339844 L 3.308594 14.339844 C 3.125 14.339844 2.976562 14.191406 2.976562 14.007812 Z M 2.976562 7.070312 "/>
     <defs>
  <style id="current-color-scheme" type="text/css">
   .ColorScheme-Text { color:#424242; } .ColorScheme-Highlight { color:#eeeeee; }
  </style>
 </defs>
<path style="fill:currentColor" class="ColorScheme-Text" d="M 5.953125 8.0625 L 1.324219 8.0625 L 3.636719 4.753906 Z M 5.953125 8.0625 "/>
</g>
</svg>
